X:865
T:Garrett's wedding
R:Slip Jig
O:Ireland
S:Paddy Moloney, The Chieftains
S:Ricker & oneil abc's
B:Irish Tin Legends
Z:Transcription:?, chords:Mike Long
M:9/8
L:1/8
K:G
"Em"~E3 e2B "G"G2B|"D"A2A A2G A2B|\
"Em"~E3 G2B "C"e2f|[1 "D"gfe fed ~B3 :|[2 "D"gfe fed "C"e2e|]
"Em"g2B BAB "C"g2e|"D"f2A AFA f2d|\
"Em"g2B BAB "G"g2e|"D"fdd afd "C"gfe ||
"Em"g2B BAB "C"g2e|"D"f2A AFA f2d|\
"G"g2e "D"fed "C"efg|"G"BcB "D"AGF "Em"~E3|]
